X: 19
T:Blue-Eyed Stranger, Fieldtown
M:4/4
L:1/8
A:Fieldtown
P:A(AB2)4
K:G
P:A
|:Bc|B2E2 E2F2|GBAF D2EG|GBcB D2AG|D2G2 G2:|
P:B
z|G2Bc d2d2|egfe dcBA|GABc d2d2|efge d4 |
B2Bc d2d2|egfe d2AF|GBcA F2AF|D2G2 G2 |
